X:1
T:National Anthem of the USSR / Russian Federation
T:Государственный гимн СССР / Россия
T:Alexander Alexandrov
T:Sergey Mikhalkov
%%score 1 2 3 4
L:1/8
Q:1/4=72
M:4/4
K:C
V:1 treble+8 nm="Ocarina" snm="Oc."
V:2 treble+8 nm="Ocarina" snm="Oc."
V:3 treble+8 nm="Ocarina" snm="Oc."
V:4 treble+8 nm="Ocarina" snm="Oc."
V:1
"^Adagio" z4 z2 z G |: c2 G>A B2 EE | A2 G>F G2 CC | D2 D>E F2 F>G | A2 Bc d3 G | e2 d>c d2 BG | %6
 c2 B>A B2 EE | A2 G>F G2 C>C | c2 B>A GBcd || e4 dc Bc | d3 G G4 | c4 BAGA | B3 E E2 x2 | %13
 c2 A>B c2 A>B | c2 Ac f2- f z | f4 ed cd | e3 c c4 | d4 cB AB | c3 A A4 |1 c2 B>A G2 C>C | %20
 c2 B>A G2 GG :|2 c2 B>A G2 C>C || G4 A2 B2 | c4- c z z2 |] %24
V:2
 z4 z2 z G |: c2 G>A B2 EE | A2 G>F G2 CC | D2 D>E F2 D>E | F2 GA B4 | c2 d>A d2 BG | %6
 A2 B>^F B2 EE | A2 G>F G2 C>C | C2 E>^F GGAB || c4 BA GA | B3 D G4 | A4 G^FEF | B3 B, E2 x2 | %13
 A2 F>G A2 F>G | A2 FA d2- d z | d4 cB AB | c3 G G4 | d4 cB ^F^G | A3 E E4 |1 A2 G>F G2 C>C | %20
 F2 E>F G2 GG :|2 A2 G>F G2 C>C || B,4 C2 F2 | G4- G z z2 |] %24
V:3
 z8 |: z8 | z8 | z4 z2 A,>A, | A,2 B,C D4 | z2 D>C D2 B,2 | C2 B,>A, B,4 | z4 z2 C>C | %8
 C2 C>C B,B,CD || E4 DC B,C | D3 D G4 | c4 BAGA | B3 G E2 x2 | z8 | C2 CC F2- F z | z4 z2 z G | %16
 E3 E E4 | z4 z2 z E | C3 C C4 |1 z4 z2 C>C | C2 C>C B,4 :|2 z4 z2 C>C || G4 A2 B2 | c4- c z z2 |] %24
V:4
 z8 |:!f! C2 C2 E2 E2 | F2 F2 E2 E2 | D2 D2 C4- | CcBA GFED | C2 E2 GdBG | A,2 D2 EBGE | %7
 F2 D2 E2 E2 | D2 D2 GFED || CB,CD E2 E2 | GGBB G2 FE | AE AB c2 c2 | EEGB EEDG | !>!F3 C A2- AG | %14
 !>!F3 C AGFE | !>!D3 E/F/ G2 G2 | CB,CE DCB,A, | B,3 C/D/ E2 E2 | A,B,CE A2 G2 |1 F2 D2 E2 E2 | %20
 D2 D2 G2 G2 :|2 F2 D2 E2 E2 || G4 G2 G2 | C4- C z z2 |] %24

